X:1
T:The Evergreen Shore
T:The Evergreen Shore
T:N. J. Chidester
T:N. J. Chidester, 1898
T:Public Domain Courtesy of the Cyber Hymnal™
C:N. J. Chidester
Z:Public Domain
Z:Courtesy of the Cyber Hymnal™
%%score 1 ( 2 3 )
L:1/8
Q:1/4=90
M:6/8
K:Bb
V:1 treble 
V:2 bass 
V:3 bass 
V:1
 [DF] | [DF]>[EG][DF] [DF][B,D][DF] | [EG][GB][EG] [DF]3 | [DB]>[DB][DB] [FB][EA][DB] | %4
w: 1.~With|song and re- joic- ing we|jour- ney a- long,|Bound for the ev- er- green|
w: 2.~We’re|joy- ful- ly sail- ing o’er|life’s o- cean wide,|Bound for the ev- er- green|
w: 3.~The|trum- pet shall sound, and the|dead shall a- rise,|Bound for the ev- er- green|
 [Fc]3- [Fc]2 [EF] | [DF]>[EG][DF] [DF][B,D][DF] | [EG][GB][EG] [DF]2 [DF] | %7
w: shore, * Where|saints of all na- tions in|one end- less song Sing|
w: shore, * For|Je- sus will wel- come us|home to His side, Where|
w: shore, * For|Je- sus, the Ris- en, the|One Sac- ri- fice, Has|
 [FB]>[FB][FB] [Fd][Fd][Ec] | [DB]3- [DB]2 ||"^Refrain" [DB] | [Fc]>[Fc][Fc] [Fc][FB][Fc] | %11
w: prais- es to God ev- er-|more. *|||
w: sor- row and sigh- ing are|o’er. *|Then|let this wild life- tem- pest|
w: saved us from sin ev- er-|more. *|||
 [Fd]3- [Fd]2 [DF] | [EG]>[EG][EG] [GB][GB][EG] | [DF]3- [DF]2 [DF]/[DF]/ | %14
w: |||
w: roar, * Christ|Je- sus is guid- ing us|o’er; * With our|
w: |||
 [FB][FB][FB] [Fc]2 [Fc]/[Fc]/ | [Fd][Fd][_Ad] [Ge]2 [Ec] | [DB]2 [DB] [Fd]<[Fd][Ec] | %17
w: |||
w: tri- als all past we will|an- chor at last, Safe|on the ev- er- green|
w: |||
 [DB]3- [DB]2 |] %18
w: |
w: shore. *|
w: |
V:2
 [B,,B,] | [B,,B,]>[B,,B,][B,,B,] [B,,B,][B,,F,][B,,B,] | [E,B,][E,B,][E,B,] [B,,B,]3 | %3
 [B,,F,]>[B,,F,][B,,F,] [D,F,][B,,F,][B,,B,] | [F,A,]3- [F,A,]2 [F,A,] | %5
 [B,,B,]>[B,,B,][B,,B,] [B,,B,][B,,F,][B,,B,] | [E,B,][E,B,][E,B,] [B,,B,]2 [B,,B,] | %7
 [D,B,]>[D,B,][D,B,] [F,B,][F,B,][F,A,] | [B,,B,]3- [B,,B,]2 || [B,,B,] | %10
 [F,A,]>[F,A,][F,A,] [F,A,][D,B,][F,A,] | B,3- B,2 [B,,B,] | [E,B,]>[E,B,][E,B,] [E,E][E,E][E,B,] | %13
 [B,,B,]3- [B,,B,]2 [B,,B,]/[B,,B,]/ | [D,B,][D,B,][D,B,] [F,A,]2 [F,A,]/[F,A,]/ | %15
 B,B,B, [E,B,]2 [E,G,] | F,2 F, [F,B,]<[F,B,][F,A,] | [B,,B,]3- [B,,B,]2 |] %18
V:3
 x | x6 | x6 | x6 | x6 | x6 | x6 | x6 | x5 || x | x6 | B,3- B,2 x | x6 | x6 | x6 | B,B,B, x3 | %16
 F,2 F, x3 | x5 |] %18

